X: 1
T: Going To Donnybrook
M: 6/8
L: 1/8
R: jig
K: Gmaj
|:E|DGG BGG|AGG GBd|efg dBG|AGA BGE|
DGG BGG|AGG GBd|efg dBG|AGG G2:|
|:f|ggg efg|edB def|ggg eag|fdd d2 f|
ggg efg|edB def|gfe dBA|BGG G2:|
